X:1
T:We must all wait till my lady comes home
M:6/8
L:1/8
R:Jig
S:Frank Kidson - Old English Country Dances  (1890)
Z:AK/Fiddler's Companion
K:G
D|G>AG G2A|BcB B2G|Bdg dBG|FAA A2D|G>AG G2A|
BcB B2g|dcB ABc|BGG G2:: f|g2d e2d|g2d e2d|c2B A2G|
FAA A2f|b2d e2d|g2d e2d|dcB ABc|BGG G2:|
